X: 1536
T: He Played His Ukulele as the Ship Went Down
B: australian traditional tunes wiki
M:2/4
L:1/8
R: Reel
Q: 1/4=120
K:G
V:1 
d/c/|:"G"Bd/B/ GB|"Am"Ac EA/B/|"D7"cA FD|"G"G/D/G/B/ "D7"dd/c/|
"G"Bd/B/ GB|"Am"Ac EA/B/|"D7"c/B/A/G/ F/D/E/F/|1"G"GG Gd/c/:|2"G"GG GF||
|:"Em"EG Be|"C"cc "B7"B2|"Em"EG Be|"A7"^cB/c/ "D7"dB/=c/|
"G"dB GA/B/|"Am"cA FE|"D7"D/E/F/G/ A/B/d/c/|1"G"BG GF:|2"G"BGG2||
% abcbook-tune_id 6342d53a62b330c8cc8a0938


% abcbook-boost 0
% abcbook-tablature 
% abcbook-transpose 
% abcbook-lastupdated 1665324369879
% abcbook-soundfonts 
% abcbook-repeats 1
% NFF Book 2020

